X:453
T:Tribute to Bill Monroe
C:Buddy O'Neill Buddy O'Neill Buddy O'Neill Buddy O'Neill
N:Transcribed by Mike Stangeland
R:bluegrass
L:1/8
Q:1/4=223
M:4/4
K:Eb
z8 |: zG, zG, zG, B,G, | CC CC CC CC | C4 DE DC | EE EE EE EE | E4 zF FF | "Gm"DD DD DD DD | 
D4 DE DB, | "Cm"CC CC CC C2 :| "Cm"[bg][bg] [bg][bg] [bg][bg] [bg][bg] | [bg][bg] [bg][bg] z2 =a2 | 
"Fm"[af][af] [af][af] [af][af] [af][af] | [af][af] [af][af] [af][af] [af][af] | 
"Gm"[fd][fd] [fd][fd] [fd][fd] [fd][fd] | [fd][fd] [fd][f3d3] G2 | "Ebm"[_dB][dB] [dB][dB] [dB][dB] [dB][dB] | 
[_dB][dB] [dB][dB] [dB][dB] [dB][dB] | "F"[c=A][cA] [cA][cA] [cA][cA] [cA][cA] | 
[c=A][cA] [cA][cA] [cA][cA] [cA][cA] | [=AF][AF] [AF][AF] [AF][AF] [AF][AF] | 
[=AF][AF] [AF][AF] [AF][AF] [AF][AF] | "Cm"CC CC CC CC | C3E CD EC | "F"CC CC "Ebm"CC CC | 
"Cm"CC CC4z :| "Cm"[c8E8C8] | 


